!! 00013] TT[TB
!! Zh. ch. 1-3166, J 2852), oder J 3484)
!!!OTL: Da suanzao
!!!ARE: Asia, China, Shanxi, Xixian
!! Ethnic Group: Han
!! I, 325, 1) + Kopie der Beilage
!!!SCT: C0088
!!!YEM: Copyright 1995, estate of Helmut Schaffrath.
**kern
*ICvox
*Ivox
*M2/4
*k[]
*C:
{16dd
16ee
16dd
16cc
4a
=1
16dd
16gg
16dd
16cc
4a
=2
8dd
16dd
16gg
8a
8cc
=3
2dd}
=4
{8cc
16cc
16dd
8gg
16gg
16ee
=5
4.dd
8cc}
=6
{8a
16a
16dd
8cc
16cc
16a
=7
16g
16a
4f
16a
16cc
=8
16g
16a
4.f}
=9
{8a
16a
16a
8dd
8b
=10
4.a
8g
=11
8f
16g
16a
16a
16g
16f
16e
=12
2d}
==
!!!AGN: Xiaodiao, Wuge, Yangge
!! +++DOUBLETTE!!!+++ Die ersten Cuts sind nur auf 1 Kanal!!
!!    Pinyin-Text der ersten Strophe vorhanden!
!!!ONB: ESAC (Essen Associative Code) Database: CHINA
!!!AMT: simple duple
!!!AIN: vox
!!!EED: Helmut Schaffrath
!!!EEV: 1.0
*-
